X:98
T:The Raven's Crooked Beak
R:jig
C:Paul S. Cranford
O:Cape Breton Island
S:http://www.cranfordpub.com
D:currently unrecorded
B:currently unpublished in book form
Z:psc, (re-formatted,updated 9/17/04)
N:
H:                                                        copyrights Cranford Publications, SOCAN
L:1/8
Q:300
M:6/8
K:G
z|gag f2 d|ege d2 B|cec dBG|Add Adf|
gag f2 d|(e/f/g)e dBG|cec BAG|AGG G2:|
|:E|DGB d2 B|cec d2 B|DGB dBG|1AdF GFE|
DGB d2 B|cec d2 B|cEc BAG|AGG G2:|
[2AdF Adf|gag f2 d|(e/f/g)e dBG|cec BAG|AGG G2||
|:z|gag f2 d|ege d2 B|cec dBG|Add Adf|
gag f2 d|(e/f/g)e dBG|cec BAG|AGG G2:|
|:E|DGB d2 B|cec d2 B|DGB dBG|1AdF GFE|
DGB d2 B|cec d2 B|cEc BAG|AGG G2:|
[2AdF Adf|gag f2 d|(e/f/g)e dBG|cec BAG|AGG G2|]
